X: 1
T: Chao
M: 6/8
L: 1/8
R: jig
K: Dmaj
DEF |: DEF DEF | ~G3 EFG | EFG EFG | ~A3 DEF |
DEF DEF | ~G3 EFG | ~A3 GFE |1 ~D3 DEF :|2 ~D3 DED ||
~B3 B FG | ~A3 AEF | ~G3 GFE | ~A3 DED |
~B3 B FG | ~A3 AEF | ~G3 GFE |1 ~D3 DED :|2 ~D3 DEF ||
